app/images/nav_icons/arrow_right.svg

<svg width="22" height="10" viewBox="0 0 22 10" fill="none" xmlns="http://www.w3.org/2000/svg">
<path fill-rule="evenodd" clip-rule="evenodd" d="M0.2959 6.47195L0.287782 6.47163H17.244L17.1435 9.32928C17.0893 9.3832 17.0595 9.45641 17.0595 9.53419C17.0595 9.61099 17.0893 9.68485 17.1435 9.73878L17.3161 9.91133C17.3703 9.96721 17.4425 9.99728 17.5197 9.99728C17.5967 9.99728 17.6692 9.96721 17.7234 9.91296L21.9157 5.70166C21.9702 5.64709 21.9998 5.57388 21.9998 5.49609C21.9998 5.4193 21.9702 5.34577 21.9157 5.29282L17.7234 1.07988C17.6692 1.02661 17.5967 0.99622 17.5197 0.99622C17.4425 0.99622 17.3703 1.02661 17.3161 1.07988L17.1435 1.25342C17.0893 1.30865 17.0595 1.38022 17.0595 1.45703C17.0595 1.53448 17.0893 1.60311 17.1435 1.65834L17.2565 4.52253H0.291896C0.133166 4.52253 -0.000374 4.65848 -0.000374 4.81764V6.18764C-0.000374 6.34679 0.13706 6.47195 0.2959 6.47195Z" fill="white"/>
</svg>

<svg width="22" height="10" fill="none" xmlns="http://www.w3.org/2000/svg"><path fill-rule="evenodd" clip-rule="evenodd" d="M.296 6.472H.288h16.956l-.1 2.857a.287.287 0 00-.084.205c0 .077.03.15.084.205l.172.172a.286.286 0 00.407.002l4.193-4.211a.289.289 0 000-.41L17.723 1.08a.29.29 0 00-.407 0l-.172.173a.288.288 0 000 .405l.113 2.865H.291A.298.298 0 000 4.818v1.37c0 .159.137.284.296.284z" fill="#fff"/></svg>
